X: 29855
T: O'er Bogie
R: reel
M: 4/4
K: Adorian
|:c2 cA cGGA|cdcA G2 Gc|Addc dega|gedc A2 GA|
c2 cA cGGA|cdcA GAcG|Addc dega|gedc A2 GA:|
|:c2 ge c2 ge|cdcA GAcG|Addc dega|gedc A2 GA|
cgeg cgeg|cdcA GAcG|Addc dega|gedc A2GA:|

